X: 1711
T: Sen Gibi
C: Numan Ağa
O: Turkey
F: http://compmusic.upf.edu/node/140
N: hicazkar--sarki--agirduyek--sen_gibi--numan_aga
N: makam= hicazkar
N: form= sarki
N: usul= agirduyek = 8/4
M: 8/4
L: 1/16
K: C _1/4B _7/8e _7/8A ^f
Q: 1/4=66
%%MIDI tuningsystem comma53
g2=a2 g2a2 c'_bba g2ba a4 abab bagf g4  | 
w:   | 
z4 f2g2 a2b2 c'2ba aggf edef feed d4  | 
w:   | 
z4 d4 =aggf g4 g2z2 c2d2 c2B2 BAe2  | \
w:   | 
d2c2 c4 c2Bc d/c/d/e/dc c4 z8 z4  | 
w:   | 
c2d2 c4 d2_1/4e2 =f2g2 f2e2 fef2 g4 g2^fg  | \
w:   | 
aggf feed dccB c2Bc d2cd e2de f2g2 z4  | 
w:   | 
d2e2 e/d/e/f/ed d4 d2c4fe dcBA B4 B2ed  | 
w:   | 
c2e2 d3c c/B/c/d/cB BcBA A/G/A/B/AG G4 z4 z4  | 
w:   | 
G8 A4 B2AB c2Bc d2ce d4 d4  | c2d2 _e2=f2 e2d2 d2c4_B2 c2dc B2AB z4  | 
w:   |   | 
f4 e2d2 d2e4d^c defg =a2gf c'_bag feed  | 
w:   | 
d3^c d3/2f/ed d8 z8 z4 d4  | =aggf g4 g2z2 d2e2 f2g2 a4 a_bag f2g2  | 
w:   |   | 
=a2b2 c'2_ba aggf feed d2c6 B2z2 d2e2  | \
w:   | 
e/d/e/f/ed d4 d2c4fe dcBA B4 z2ed c2e2  | 
w:   | 
d3c c/B/c/d/cB BcBA A/G/A/B/AG G4 z4 |
w:   | 


